svgs/solid/trumpet.svg

<svg xmlns="http://www.w3.org/2000/svg" viewBox="0 0 640 512"><!-- Font Awesome Pro 6.0.0-alpha2 by @fontawesome - https://fontawesome.com License - https://fontawesome.com/license (Commercial License) --><path d="M624 64C618.875 64 614 66.5 611 70.625C591.125 96.5 568.875 120.5 544.75 142.375C529.375 155.375 511.875 168 492.25 178.375C486.75 181.25 466.5 192 432.25 192H400V160C400 151.125 392.875 144 384 144H368C359.125 144 352 151.125 352 160V192H312V160C312 151.125 304.875 144 296 144H280C271.125 144 264 151.125 264 160V192H224V160C224 151.125 216.875 144 208 144H192C183.125 144 176 151.125 176 160V192H48C48 183.125 40.875 176 32 176H16C7.125 176 0 183.125 0 192V256C0 264.875 7.125 272 16 272H32C40.875 272 48 264.875 48 256H81.75C70.75 274.875 64 296.625 64 320C64.125 390.625 121.375 447.875 192 448H416C469 448 512 405 512 352V320.625C501.125 312.125 489.5 304.5 477.375 297.875C468.75 293.375 458.625 290.875 448 289.5V352C448 369.625 433.625 384 416 384H400V256H432C466.5 256 486.625 266.625 492.25 269.625C509.75 279 526.25 290.125 541.5 302.875C580.875 337.5 610.5 376.625 610.75 376.875C613.625 381.375 618.625 384 624 384C636.125 384 640 373 640 368V80C640 68 629.25 64 624 64ZM176 381.75C147.75 374.5 128 349.125 128 320S147.75 265.5 176 258.25V381.75ZM264 384H224V256H264V384ZM352 384H312V256H352V384Z"/></svg>

<svg xmlns="http://www.w3.org/2000/svg" viewBox="0 0 640 512"><!-- Font Awesome Pro 5.15.1 by @fontawesome - https://fontawesome.com License - https://fontawesome.com/license (Commercial License) --><path d="M624 64a16.27 16.27 0 0 0-13 6.67 555.44 555.44 0 0 1-66.19 71.68c-15.38 13-32.93 25.66-52.54 36-5.55 2.94-25.75 13.6-60 13.63H400V160a16 16 0 0 0-16-16h-16a16 16 0 0 0-16 16v32h-40v-32a16 16 0 0 0-16-16h-16a16 16 0 0 0-16 16v32h-40v-32a16 16 0 0 0-16-16h-16a16 16 0 0 0-16 16v32H48a16 16 0 0 0-16-16H16a16 16 0 0 0-16 16v64a16 16 0 0 0 16 16h16a16 16 0 0 0 16-16h33.81C70.78 274.9 64 296.58 64 320a128.14 128.14 0 0 0 128 128h224a96.1 96.1 0 0 0 96-96v-31.43a251.78 251.78 0 0 0-34.67-22.65c-8.63-4.55-18.76-7-29.33-8.41V352a32 32 0 0 1-32 32h-16V256h32c34.48 0 54.66 10.66 60.27 13.62a294.39 294.39 0 0 1 49.17 33.28c39.49 34.65 69.09 73.78 69.25 74A16 16 0 0 0 624 384c12.09 0 16-10.94 16-16V80c0-12-10.81-16-16-16zM176 381.73a63.69 63.69 0 0 1 0-123.46zm88 2.27h-40V256h40zm88 0h-40V256h40z"/></svg>
